src/lib/packages/icons/src/assets/filled/lock-viewfinder.svg

<svg width="24" height="24" viewBox="0 0 24 24" fill="none" xmlns="http://www.w3.org/2000/svg">
<path d="M21 8.75C20.586 8.75 20.25 8.414 20.25 8V4.5C20.25 3.911 20.089 3.75 19.5 3.75H16C15.586 3.75 15.25 3.414 15.25 3C15.25 2.586 15.586 2.25 16 2.25H19.5C20.909 2.25 21.75 3.091 21.75 4.5V8C21.75 8.414 21.414 8.75 21 8.75ZM3.75 8V4.5C3.75 3.911 3.911 3.75 4.5 3.75H8C8.414 3.75 8.75 3.414 8.75 3C8.75 2.586 8.414 2.25 8 2.25H4.5C3.091 2.25 2.25 3.091 2.25 4.5V8C2.25 8.414 2.586 8.75 3 8.75C3.414 8.75 3.75 8.414 3.75 8ZM8.75 21C8.75 20.586 8.414 20.25 8 20.25H4.5C3.911 20.25 3.75 20.089 3.75 19.5V16C3.75 15.586 3.414 15.25 3 15.25C2.586 15.25 2.25 15.586 2.25 16V19.5C2.25 20.909 3.091 21.75 4.5 21.75H8C8.414 21.75 8.75 21.414 8.75 21ZM21.75 19.5V16C21.75 15.586 21.414 15.25 21 15.25C20.586 15.25 20.25 15.586 20.25 16V19.5C20.25 20.089 20.089 20.25 19.5 20.25H16C15.586 20.25 15.25 20.586 15.25 21C15.25 21.414 15.586 21.75 16 21.75H19.5C20.909 21.75 21.75 20.909 21.75 19.5ZM15.417 9.76099V8.66602C15.417 6.78202 13.884 5.24902 12 5.24902C10.116 5.24902 8.58301 6.78202 8.58301 8.66602V9.76099C7.53001 9.93499 7 10.6309 7 11.8569V16.1431C7 17.5721 7.71407 18.2859 9.14307 18.2859H14.8569C16.2849 18.2859 17 17.5721 17 16.1431V11.8569C17 10.6309 16.47 9.93499 15.417 9.76099ZM12.75 14.321V15.334C12.75 15.748 12.414 16.084 12 16.084C11.586 16.084 11.25 15.748 11.25 15.334V14.2959C10.962 14.0669 10.7649 13.729 10.7649 13.334C10.7649 12.644 11.32 12.084 12.01 12.084H12.02C12.71 12.084 13.27 12.644 13.27 13.334C13.27 13.745 13.057 14.093 12.75 14.321ZM10.083 9.71411V8.66602C10.083 7.60902 10.943 6.74902 12 6.74902C13.057 6.74902 13.917 7.60902 13.917 8.66602V9.71411H10.083Z" fill="currentColor"/>
</svg>

<svg xmlns="http://www.w3.org/2000/svg" width="24" height="24" fill="none"><path fill="currentColor" d="M21 8.75a.75.75 0 0 1-.75-.75V4.5c0-.589-.161-.75-.75-.75H16a.75.75 0 0 1 0-1.5h3.5c1.409 0 2.25.841 2.25 2.25V8a.75.75 0 0 1-.75.75ZM3.75 8V4.5c0-.589.161-.75.75-.75H8a.75.75 0 0 0 0-1.5H4.5c-1.409 0-2.25.841-2.25 2.25V8a.75.75 0 0 0 1.5 0Zm5 13a.75.75 0 0 0-.75-.75H4.5c-.589 0-.75-.161-.75-.75V16a.75.75 0 0 0-1.5 0v3.5c0 1.409.841 2.25 2.25 2.25H8a.75.75 0 0 0 .75-.75Zm13-1.5V16a.75.75 0 0 0-1.5 0v3.5c0 .589-.161.75-.75.75H16a.75.75 0 0 0 0 1.5h3.5c1.409 0 2.25-.841 2.25-2.25Zm-6.333-9.739V8.666A3.421 3.421 0 0 0 12 5.249a3.421 3.421 0 0 0-3.417 3.417v1.095C7.53 9.935 7 10.631 7 11.857v4.286c0 1.43.714 2.143 2.143 2.143h5.714c1.428 0 2.143-.714 2.143-2.143v-4.286c0-1.226-.53-1.922-1.583-2.096Zm-2.667 4.56v1.013a.75.75 0 0 1-1.5 0v-1.038a1.228 1.228 0 0 1-.485-.962c0-.69.555-1.25 1.245-1.25h.01c.69 0 1.25.56 1.25 1.25 0 .411-.213.759-.52.987Zm-2.667-4.607V8.666A1.92 1.92 0 0 1 12 6.749a1.92 1.92 0 0 1 1.917 1.917v1.048h-3.834Z"/></svg>
